assets/img/min/ng-conf.svg

<svg width="1372" height="504" viewBox="0 0 1372 504" xmlns="http://www.w3.org/2000/svg"><title>Untitled 2</title><g fill="none" fill-rule="evenodd"><path d="M614 160s-50 11.122-50 24.678v149.804c0 2.433 17.606 4.518 17.606 4.518s17.605-2.085 17.605-4.518V198.233c0-3.823 14.789-7.299 14.789-7.299s14.789 3.476 14.789 7.647v135.901c0 2.433 17.605 4.518 17.605 4.518S664 336.915 664 334.482V184.678C664 171.122 614 160 614 160m148.606 130.147v-19.294C781.62 267.345 795 258.224 795 247.349v-62.442C795 171.226 745 160 745 160s-50 11.226-50 24.907v62.442c0 10.875 13.38 19.996 32.394 23.504v19.294C708.38 293.655 695 302.776 695 313.3v62.442C695 389.774 745 401 745 401s50-11.226 50-25.258V313.3c0-10.524-13.38-19.645-32.394-23.153zM745 372s-15-3.636-15-8v-36.364c0-4 15-7.636 15-7.636s15 3.636 15 7.636v36.728c0 4-15 7.636-15 7.636zm0-128s-15-3.636-15-7.636v-36.728c0-4 15-7.636 15-7.636s15 3.636 15 8v36.364c0 4-15 7.636-15 7.636zm132.185-2h-47.574c-1.219 0-3.611 14.832-3.611 14.832 0-.001 2.392 15.168 3.611 15.168h47.574c1.22 0 3.815-14.832 3.815-14.832S878.405 242 877.185 242m117.209 37.302s-17.605 2.112-17.605 4.223v20.411c0 4.224-14.789 7.743-14.789 7.743s-14.789-3.519-14.789-7.39V198.711c0-3.871 14.789-7.39 14.789-7.39s14.789 3.519 14.789 7.743v20.411c0 2.111 17.605 4.223 17.605 4.223s17.606-2.112 17.606-4.223v-34.488c0-13.725-50-24.987-50-24.987s-50 11.262-50 24.987v133.026C912 331.738 962 343 962 343s50-11.262 50-24.987v-34.488c0-2.111-17.606-4.223-17.606-4.223M1092 160s-50 11.262-50 24.987v133.026c0 13.725 50 24.987 50 24.987s50-11.262 50-24.987V184.987c0-13.725-50-24.987-50-24.987zm0 150s-15-3.509-15-7.368V197.368c0-3.859 15-7.368 15-7.368s15 3.509 15 7.719v104.913c0 3.859-15 7.368-15 7.368zm131-150s-50 11.122-50 24.678v149.804c0 2.433 17.606 4.518 17.606 4.518s17.605-2.085 17.605-4.518V198.233c0-3.823 14.789-7.299 14.789-7.299s14.789 3.476 14.789 7.647v135.901c0 2.433 17.605 4.518 17.605 4.518s17.606-2.085 17.606-4.518V184.678c0-13.556-50-24.678-50-24.678m144.798 3.951h-29.417v-21.386s6.654-7.713 14.708-7.713h14.709c2.101 0 4.202-15.426 4.202-15.426S1369.899 104 1367.798 104h-14.709c-27.315 0-49.727 24.892-49.727 24.892v35.059h-17.51c-2.101 0-3.852 15.426-3.852 15.426s1.751 15.777 3.852 15.777h17.51v141.288c0 2.455 17.51 4.558 17.51 4.558s17.509-2.103 17.509-4.558V195.154h29.417c2.101 0 4.202-15.426 4.202-15.426s-2.101-15.777-4.202-15.777" fill="#393A37"/><path d="M230.314 435.533L90.138 358.549 64.039 141.883 0 97.042l36.229 300.389L230.314 503.54v-68.007" fill="#EBAF2A"/><path d="M247.314 503.078V435.07l139.322-76.521 26.112-216.778 64.039-44.841-36.242 300.501-193.231 105.647" fill="#129353"/><path d="M11.108 80.183l63.697 44.602L238.552 67l163.328 57.745 63.697-44.602L238.611 0 11.108 80.183" fill="#5373AB"/><path d="M369.387 348l-131 72-131-71-25-205 156-55 156 55-25 204" fill="#CA4038"/><path d="M170.31 346h-40.505l108.582-241.052L350.81 346h-37.543l-23.842-54.965h-97.339L170.31 346zm68.077-163.711L206.376 258h69.049l-37.038-75.711z" fill="#FFF"/></g></svg>

<?xml version="1.0" encoding="UTF-8" standalone="no"?>
<svg width="1372px" height="504px" viewBox="0 0 1372 504" version="1.1" xmlns="http://www.w3.org/2000/svg" xmlns:xlink="http://www.w3.org/1999/xlink" xmlns:sketch="http://www.bohemiancoding.com/sketch/ns">
    <!-- Generator: Sketch 3.3.3 (12072) - http://www.bohemiancoding.com/sketch -->
    <title>Untitled 2</title>
    <desc>Created with Sketch.</desc>
    <defs></defs>
    <g id="Page-1" stroke="none" stroke-width="1" fill="none" fill-rule="evenodd" sketch:type="MSPage">
        <g id="Imported-Layers" sketch:type="MSLayerGroup">
            <path d="M614,160 C614,160 564,171.122 564,184.678 L564,334.482 C564,336.915 581.606,339 581.606,339 C581.606,339 599.211,336.915 599.211,334.482 L599.211,198.233 C599.211,194.41 614,190.934 614,190.934 C614,190.934 628.789,194.41 628.789,198.581 L628.789,334.482 C628.789,336.915 646.394,339 646.394,339 C646.394,339 664,336.915 664,334.482 L664,184.678 C664,171.122 614,160 614,160" id="Fill-1" fill="#393A37" sketch:type="MSShapeGroup"></path>
            <path d="M762.606,290.147 L762.606,270.853 C781.62,267.345 795,258.224 795,247.349 L795,184.907 C795,171.226 745,160 745,160 C745,160 695,171.226 695,184.907 L695,247.349 C695,258.224 708.38,267.345 727.394,270.853 L727.394,290.147 C708.38,293.655 695,302.776 695,313.3 L695,375.742 C695,389.774 745,401 745,401 C745,401 795,389.774 795,375.742 L795,313.3 C795,302.776 781.62,293.655 762.606,290.147 L762.606,290.147 Z M745,372 C745,372 730,368.364 730,364 L730,327.636 C730,323.636 745,320 745,320 C745,320 760,323.636 760,327.636 L760,364.364 C760,368.364 745,372 745,372 L745,372 Z M745,244 C745,244 730,240.364 730,236.364 L730,199.636 C730,195.636 745,192 745,192 C745,192 760,195.636 760,200 L760,236.364 C760,240.364 745,244 745,244 L745,244 Z" id="Fill-2" fill="#393A37" sketch:type="MSShapeGroup"></path>
            <path d="M877.185,242 L829.611,242 C828.392,242 826,256.832 826,256.832 C826,256.831 828.392,272 829.611,272 L877.185,272 C878.405,272 881,257.168 881,257.168 C881,257.168 878.405,242 877.185,242" id="Fill-3" fill="#393A37" sketch:type="MSShapeGroup"></path>
            <path d="M994.394,279.302 C994.394,279.302 976.789,281.414 976.789,283.525 L976.789,303.936 C976.789,308.16 962,311.679 962,311.679 C962,311.679 947.211,308.16 947.211,304.289 L947.211,198.711 C947.211,194.84 962,191.321 962,191.321 C962,191.321 976.789,194.84 976.789,199.064 L976.789,219.475 C976.789,221.586 994.394,223.698 994.394,223.698 C994.394,223.698 1012,221.586 1012,219.475 L1012,184.987 C1012,171.262 962,160 962,160 C962,160 912,171.262 912,184.987 L912,318.013 C912,331.738 962,343 962,343 C962,343 1012,331.738 1012,318.013 L1012,283.525 C1012,281.414 994.394,279.302 994.394,279.302" id="Fill-4" fill="#393A37" sketch:type="MSShapeGroup"></path>
            <path d="M1092,160 C1092,160 1042,171.262 1042,184.987 L1042,318.013 C1042,331.738 1092,343 1092,343 C1092,343 1142,331.738 1142,318.013 L1142,184.987 C1142,171.262 1092,160 1092,160 L1092,160 Z M1092,310 C1092,310 1077,306.491 1077,302.632 L1077,197.368 C1077,193.509 1092,190 1092,190 C1092,190 1107,193.509 1107,197.719 L1107,302.632 C1107,306.491 1092,310 1092,310 L1092,310 Z" id="Fill-5" fill="#393A37" sketch:type="MSShapeGroup"></path>
            <path d="M1223,160 C1223,160 1173,171.122 1173,184.678 L1173,334.482 C1173,336.915 1190.606,339 1190.606,339 C1190.606,339 1208.211,336.915 1208.211,334.482 L1208.211,198.233 C1208.211,194.41 1223,190.934 1223,190.934 C1223,190.934 1237.789,194.41 1237.789,198.581 L1237.789,334.482 C1237.789,336.915 1255.394,339 1255.394,339 C1255.394,339 1273,336.915 1273,334.482 L1273,184.678 C1273,171.122 1223,160 1223,160" id="Fill-6" fill="#393A37" sketch:type="MSShapeGroup"></path>
            <path d="M1367.798,163.951 L1338.381,163.951 L1338.381,142.565 C1338.381,142.565 1345.035,134.852 1353.089,134.852 L1367.798,134.852 C1369.899,134.852 1372,119.426 1372,119.426 C1372,119.426 1369.899,104 1367.798,104 L1353.089,104 C1325.774,104 1303.362,128.892 1303.362,128.892 L1303.362,163.951 L1285.852,163.951 C1283.751,163.951 1282,179.377 1282,179.377 C1282,179.377 1283.751,195.154 1285.852,195.154 L1303.362,195.154 L1303.362,336.442 C1303.362,338.897 1320.872,341 1320.872,341 C1320.872,341 1338.381,338.897 1338.381,336.442 L1338.381,195.154 L1367.798,195.154 C1369.899,195.154 1372,179.728 1372,179.728 C1372,179.728 1369.899,163.951 1367.798,163.951" id="Fill-7" fill="#393A37" sketch:type="MSShapeGroup"></path>
            <path d="M230.314,435.533 L90.138,358.549 L64.039,141.883 L0,97.042 L36.229,397.431 L230.314,503.54 L230.314,435.533" id="Fill-8" fill="#EBAF2A" sketch:type="MSShapeGroup"></path>
            <path d="M247.314,503.078 L247.314,435.07 L386.636,358.549 L412.748,141.771 L476.787,96.93 L440.545,397.431 L247.314,503.078" id="Fill-9" fill="#129353" sketch:type="MSShapeGroup"></path>
            <path d="M11.108,80.183 L74.805,124.785 L238.552,67 L401.88,124.745 L465.577,80.143 L238.611,0 L11.108,80.183" id="Fill-10" fill="#5373AB" sketch:type="MSShapeGroup"></path>
            <path d="M369.387,348 L238.387,420 L107.387,349 L82.387,144 L238.387,89 L394.387,144 L369.387,348" id="Fill-11" fill="#CA4038" sketch:type="MSShapeGroup"></path>
            <path d="M170.31,346 L129.805,346 L238.387,104.948 L350.81,346 L313.267,346 L289.425,291.035 L192.086,291.035 L170.31,346 L170.31,346 Z M238.387,182.289 L206.376,258 L275.425,258 L238.387,182.289 L238.387,182.289 Z" id="Fill-12" fill="#FFFFFF" sketch:type="MSShapeGroup"></path>
        </g>
    </g>
</svg>
